images/icons/whatsapp.svg

<svg width="24" height="24" viewBox="0 0 24 24" fill="none" xmlns="http://www.w3.org/2000/svg">
<path d="M0.0570068 24L1.74401 17.837C0.703007 16.033 0.156007 13.988 0.157007 11.891C0.160007 5.335 5.49501 0 12.05 0C15.231 0.001 18.217 1.24 20.463 3.488C22.708 5.736 23.944 8.724 23.943 11.902C23.94 18.459 18.605 23.794 12.05 23.794C10.06 23.793 8.09901 23.294 6.36201 22.346L0.0570068 24V24ZM6.65401 20.193C8.33001 21.188 9.93001 21.784 12.046 21.785C17.494 21.785 21.932 17.351 21.935 11.9C21.937 6.438 17.52 2.01 12.054 2.008C6.60201 2.008 2.16701 6.442 2.16501 11.892C2.16401 14.117 2.81601 15.783 3.91101 17.526L2.91201 21.174L6.65401 20.193V20.193ZM18.041 14.729C17.967 14.605 17.769 14.531 17.471 14.382C17.174 14.233 15.713 13.514 15.44 13.415C15.168 13.316 14.97 13.266 14.771 13.564C14.573 13.861 14.003 14.531 13.83 14.729C13.657 14.927 13.483 14.952 13.186 14.803C12.889 14.654 11.931 14.341 10.796 13.328C9.91301 12.54 9.31601 11.567 9.14301 11.269C8.97001 10.972 9.12501 10.811 9.27301 10.663C9.40701 10.53 9.57001 10.316 9.71901 10.142C9.87001 9.97 9.91901 9.846 10.019 9.647C10.118 9.449 10.069 9.275 9.99401 9.126C9.91901 8.978 9.32501 7.515 9.07801 6.92C8.83601 6.341 8.59101 6.419 8.40901 6.41L7.83901 6.4C7.64101 6.4 7.31901 6.474 7.04701 6.772C6.77501 7.07 6.00701 7.788 6.00701 9.251C6.00701 10.714 7.07201 12.127 7.22001 12.325C7.36901 12.523 9.31501 15.525 12.296 16.812C13.005 17.118 13.559 17.301 13.99 17.438C14.702 17.664 15.35 17.632 15.862 17.556C16.433 17.471 17.62 16.837 17.868 16.143C18.116 15.448 18.116 14.853 18.041 14.729V14.729Z" fill="white"/>
</svg>

<svg xmlns="http://www.w3.org/2000/svg" width="24" height="24" viewBox="0 0 24 24"><path d="M.057 24l1.687-6.163c-1.041-1.804-1.588-3.849-1.587-5.946.003-6.556 5.338-11.891 11.893-11.891 3.181.001 6.167 1.24 8.413 3.488 2.245 2.248 3.481 5.236 3.48 8.414-.003 6.557-5.338 11.892-11.893 11.892-1.99-.001-3.951-.5-5.688-1.448l-6.305 1.654zm6.597-3.807c1.676.995 3.276 1.591 5.392 1.592 5.448 0 9.886-4.434 9.889-9.885.002-5.462-4.415-9.89-9.881-9.892-5.452 0-9.887 4.434-9.889 9.884-.001 2.225.651 3.891 1.746 5.634l-.999 3.648 3.742-.981zm11.387-5.464c-.074-.124-.272-.198-.57-.347-.297-.149-1.758-.868-2.031-.967-.272-.099-.47-.149-.669.149-.198.297-.768.967-.941 1.165-.173.198-.347.223-.644.074-.297-.149-1.255-.462-2.39-1.475-.883-.788-1.48-1.761-1.653-2.059-.173-.297-.018-.458.13-.606.134-.133.297-.347.446-.521.151-.172.2-.296.3-.495.099-.198.05-.372-.025-.521-.075-.148-.669-1.611-.916-2.206-.242-.579-.487-.501-.669-.51l-.57-.01c-.198 0-.52.074-.792.372s-1.04 1.016-1.04 2.479 1.065 2.876 1.213 3.074c.149.198 2.095 3.2 5.076 4.487.709.306 1.263.489 1.694.626.712.226 1.36.194 1.872.118.571-.085 1.758-.719 2.006-1.413.248-.695.248-1.29.173-1.414z"/></svg>
